src/icons/search.icon.svg

<?xml version="1.0" encoding="UTF-8"?>
<svg width="24px" height="24px" viewBox="0 0 24 24" version="1.1" xmlns="http://www.w3.org/2000/svg" xmlns:xlink="http://www.w3.org/1999/xlink">
    <!-- Generator: Sketch 49.2 (51160) - http://www.bohemiancoding.com/sketch -->
    <title>IconSearch</title>
    <desc>Created with Sketch.</desc>
    <defs></defs>
    <g id="Page-1" stroke="none" stroke-width="1" fill="none" fill-rule="evenodd">
        <path d="M15.864494,14.3207547 L15.051458,14.3207547 L14.7632933,14.0428816 C15.7718696,12.8696398 16.3790738,11.3464837 16.3790738,9.68953688 C16.3790738,5.9948542 13.3842196,3 9.68953688,3 C5.9948542,3 3,5.9948542 3,9.68953688 C3,13.3842196 5.9948542,16.3790738 9.68953688,16.3790738 C11.3464837,16.3790738 12.8696398,15.7718696 14.0428816,14.7632933 L14.3207547,15.051458 L14.3207547,15.864494 L19.4665523,21 L21,19.4665523 L15.864494,14.3207547 L15.864494,14.3207547 Z M9.68953688,14.3207547 C7.12692967,14.3207547 5.05831904,12.2521441 5.05831904,9.68953688 C5.05831904,7.12692967 7.12692967,5.05831904 9.68953688,5.05831904 C12.2521441,5.05831904 14.3207547,7.12692967 14.3207547,9.68953688 C14.3207547,12.2521441 12.2521441,14.3207547 9.68953688,14.3207547 Z" id="Shape" fill="currentColor" fill-rule="nonzero"></path>
    </g>
</svg>

<svg xmlns="http://www.w3.org/2000/svg" viewBox="0 0 24 24"><path d="M15.864 14.32h-.813l-.288-.277A6.66 6.66 0 0016.38 9.69a6.69 6.69 0 10-6.69 6.69 6.66 6.66 0 004.354-1.617l.278.288v.813L19.467 21 21 19.467l-5.136-5.146zm-6.174 0a4.625 4.625 0 01-4.632-4.63A4.625 4.625 0 019.69 5.058a4.625 4.625 0 014.63 4.632 4.625 4.625 0 01-4.63 4.63z" fill="currentColor" fill-rule="nonzero"/></svg>
